Newaita-dark/apps/16/touch.svg

<svg height="16pt" viewBox="0 0 16 16" width="16pt" xmlns="http://www.w3.org/2000/svg" xmlns:xlink="http://www.w3.org/1999/xlink"><linearGradient id="a" gradientTransform="matrix(.0500048 0 0 .031253 -4.762959 6.05787)" gradientUnits="userSpaceOnUse" x1="254" x2="254" y1="233.5" y2="254.666672"><stop offset="0" stop-opacity=".27451"/><stop offset="1" stop-opacity="0"/></linearGradient><linearGradient id="b"><stop offset="0" stop-opacity=".313726"/><stop offset=".222222" stop-opacity=".27451"/><stop offset="1" stop-opacity="0"/></linearGradient><radialGradient id="c" cx="450.908936" cy="189.579361" gradientTransform="matrix(.00000009 -.0390662 -.0703192 -.00000005 26.396085 31.136144)" gradientUnits="userSpaceOnUse" r="21.166656" xlink:href="#b"/><radialGradient id="d" cx="450.908936" cy="189.579361" gradientTransform="matrix(-.00000009 .0390662 .0703192 .00000005 -10.519571 -4.425262)" gradientUnits="userSpaceOnUse" r="21.166656" xlink:href="#b"/><radialGradient id="e" cx="450.908936" cy="189.579361" gradientTransform="matrix(-.00000009 -.0390662 .0703192 -.00000005 -10.519571 31.136144)" gradientUnits="userSpaceOnUse" r="21.166656" xlink:href="#b"/><radialGradient id="f" cx="450.908936" cy="189.579361" gradientTransform="matrix(.00000009 .0390662 -.0703192 .00000005 26.396084 -4.425262)" gradientUnits="userSpaceOnUse" r="21.166656" xlink:href="#b"/><linearGradient id="g" gradientUnits="userSpaceOnUse" x1="7.938262" x2="7.938262" y1="13.35544549998" y2="2.1095745"><stop offset="0" stop-color="#5c6bc0"/><stop offset="1" stop-color="#7986cb"/></linearGradient><linearGradient id="h" gradientUnits="userSpaceOnUse" x1="8.60076849997" x2="8.60076849997" y1="13.97366800002" y2="6.696927625"><stop offset="0" stop-color="#bcaaa4"/><stop offset="1" stop-color="#d7ccc8"/></linearGradient><path d="m2.644531 13.355469h10.585938v.660156h-10.585938zm0 0" fill="url(#a)"/><path d="m13.230469 13.355469h1.324219v-.660157h-1.324219zm0 0" fill="url(#c)"/><path d="m2.644531 13.355469h-1.320312v.660156h1.320312zm0 0" fill="url(#d)"/><path d="m2.644531 13.355469h-1.320312v-.660157h1.320312zm0 0" fill="url(#e)"/><path d="m13.230469 13.355469h1.324219v.660156h-1.324219zm0 0" fill="url(#f)"/><path d="m1.984375 2.109375h11.90625c.367187 0 .664063.296875.664063.660156v9.925781c0 .363282-.296876.660157-.664063.660157h-11.90625c-.363281 0-.660156-.296875-.660156-.660157v-9.925781c0-.363281.296875-.660156.660156-.660156zm0 0" fill="url(#g)"/><path d="m1.984375 2.109375c-.367187 0-.660156.296875-.660156.660156v.167969c0-.367188.292969-.664062.660156-.664062h11.90625c.367187 0 .664063.296874.664063.664062v-.167969c0-.363281-.296876-.660156-.664063-.660156zm0 0" fill="#fff" fill-opacity=".392157"/><path d="m1.984375 13.355469c-.367187 0-.660156-.296875-.660156-.660157v-.167968c0 .367187.292969.664062.660156.664062h11.90625c.367187 0 .664063-.296875.664063-.664062v.167968c0 .363282-.296876.660157-.664063.660157zm0 0" fill-opacity=".235294"/><path d="m253.975747-9.894587c17.498329 0 31.746968 14.24864 31.746968 31.746969s-14.248639 31.746968-31.746968 31.746968-31.746969-14.248639-31.746969-31.746968 14.24864-31.746969 31.746969-31.746969zm0 0" style="fill:none;stroke-width:21.299999;stroke-linecap:round;stroke-linejoin:round;stroke:#fff;stroke-opacity:.392157" transform="matrix(.031253 0 0 .031253 0 6.719392)"/><path d="m253.975747-62.889526c46.745536 0 84.741907 37.996372 84.741907 84.741908s-37.996371 84.616919-84.741907 84.616919-84.61692-37.871383-84.61692-84.616919 37.871384-84.741908 84.61692-84.741908zm0 0" style="fill:none;stroke-width:21.132999;stroke-linecap:round;stroke-linejoin:round;stroke:#fff;stroke-opacity:.392157" transform="matrix(.031253 0 0 .031253 0 6.719392)"/><path d="m1.984375 2.0625c-.390625 0-.707031.316406-.707031.707031v9.925781c0 .390626.316406.707032.707031.707032h11.90625c.394531 0 .710937-.316406.710937-.707032v-9.925781c0-.390625-.316406-.707031-.710937-.707031zm0 .09375h11.90625c.34375 0 .617187.273438.617187.613281v9.925781c0 .339844-.273437.613282-.617187.613282h-11.90625c-.339844 0-.613281-.273438-.613281-.613282v-9.925781c0-.339843.273437-.613281.613281-.613281zm0 0"/><path d="m7.9375 6.695312c-.363281 0-.660156.296876-.660156.664063v3.308594c0 .050781.007812.097656.015625.144531-.003907.03125-.007813.058594-.011719.085938l-.125-.128907c-.261719-.257812-.679688-.257812-.9375 0-.257812.261719-.257812.679688 0 .9375l1.171875 1.167969c.027344.03125.0625.058594.097656.082031.363281.601563 1.160157 1.015625 2.089844 1.015625h.027344c1.277343 0 2.304687-.777344 2.304687-1.746094v-.144531c0-.015625-.003906-.03125-.003906-.050781 0-.011719.003906-.027344.003906-.042969v-.992187c0-.492188-.359375-.898438-.828125-.976563v-.015625c0-.367187-.296875-.660156-.660156-.660156-.203125 0-.382813.089844-.503906.230469-.050781-.320313-.324219-.5625-.65625-.5625-.367188 0-.660157.296875-.660157.660156v-2.3125c0-.367187-.296874-.664063-.664062-.664063zm0 0" fill="url(#h)"/><path d="m7.9375 6.695312c-.363281 0-.660156.296876-.660156.664063v.289063c0-.363282.296875-.660157.660156-.660157.367188 0 .664062.296875.664062.660157v-.289063c0-.367187-.296874-.664063-.664062-.664063zm1.324219 2.316407c-.367188 0-.660157.296875-.660157.660156v.292969c0-.367188.292969-.660156.660157-.660156.332031 0 .605469.242187.65625.5625.121093-.144532.300781-.234376.503906-.234376.363281 0 .660156.296876.660156.664063v.011719c.46875.078125.828125.484375.828125.980468v-.292968c0-.492188-.359375-.898438-.828125-.976563v-.015625c0-.367187-.296875-.660156-.660156-.660156-.203125 0-.382813.089844-.503906.230469-.050781-.320313-.324219-.5625-.65625-.5625zm-2.574219 1.566406c-.167969 0-.339844.0625-.46875.191406-.167969.167969-.226562.402344-.175781.613281.023437-.117187.085937-.226562.175781-.320312.257812-.257812.675781-.257812.9375 0l.125.128906c.003906-.03125.007812-.058594.011719-.085937-.007813-.046875-.015625-.097657-.015625-.148438v-.0625l-.121094-.125c-.132812-.128906-.300781-.191406-.46875-.191406zm0 0" fill="#fff" fill-opacity=".392157"/><path d="m7.277344 10.335938v.226562l.003906.003906c.003906-.027344.007812-.054687.011719-.082031-.007813-.046875-.015625-.097656-.015625-.148437zm-1.230469.738281c-.058594.21875 0 .460937.171875.632812l1.171875 1.167969c.027344.03125.0625.058594.097656.082031.363281.601563 1.160157 1.015625 2.089844 1.015625h.027344c1.277343 0 2.304687-.777344 2.304687-1.746094v-.144531c0-.015625-.003906-.03125-.003906-.050781 0-.011719.003906-.027344.003906-.042969v-.09375c0 .96875-1.027344 1.75-2.304687 1.75h-.027344c-.929687 0-1.726563-.417969-2.089844-1.019531-.035156-.023438-.070312-.050781-.097656-.078125l-1.171875-1.171875c-.085938-.085938-.144531-.191406-.171875-.300781zm5.863281.585937c0 .011719-.003906.027344-.003906.042969s.003906.03125.003906.046875zm0 0" fill-opacity=".235294"/><path d="m7.9375 6.648438c-.390625 0-.707031.316406-.707031.710937v3.308594c0 .042969.007812.085937.015625.128906l-.058594-.058594c-.277344-.277343-.722656-.277343-1 0-.277344.277344-.277344.726563 0 1l1.167969 1.171875c.03125.03125.0625.054688.097656.078125.375.617188 1.183594 1.03125 2.125 1.03125h.027344c.648437 0 1.234375-.195312 1.660156-.519531.421875-.324219.691406-.773438.691406-1.273438v-.144531c0-.015625-.003906-.03125-.003906-.050781 0-.011719.003906-.027344.003906-.042969v-.992187c0-.5-.355469-.917969-.832031-1.015625-.011719-.378907-.320312-.683594-.703125-.683594-.1875 0-.351563.074219-.480469.1875-.082031-.296875-.351562-.519531-.679687-.519531-.265625 0-.492188.148437-.613281.363281v-1.96875c0-.394531-.316407-.710937-.710938-.710937zm0 .09375c.34375 0 .617188.273437.617188.617187v2.3125h.09375c0-.339844.273437-.613281.613281-.613281.3125 0 .5625.226562.609375.523437 0 .019531.015625.03125.03125.039063.019531.003906.039062 0 .050781-.015625.113281-.132813.277344-.214844.46875-.214844.339844 0 .613281.273437.613281.613281v.015625c0 .023438.015625.042969.039063.046875.449219.074219.789062.460938.789062.929688v.992187c0 .015625-.003906.027344-.003906.042969v.003906c0 .015625.003906.03125.003906.046875v.144531c0 .46875-.25.890626-.65625 1.199219-.40625.308594-.972656.5-1.601562.5h-.027344c-.914063 0-1.699219-.410156-2.050781-.992187-.003906-.007813-.007813-.011719-.015625-.015625-.03125-.019531-.0625-.046875-.089844-.074219l-1.167969-1.171875c-.242187-.238281-.242187-.625 0-.867187.238282-.242188.625-.242188.867188 0l.128906.128906c.011719.011718.03125.015625.046875.007812.019531-.003906.03125-.019531.03125-.039062.003906-.027344.007813-.054688.011719-.078125 0-.007813 0-.015625 0-.019531-.011719-.046876-.015625-.089844-.015625-.136719v-3.308594c0-.34375.273437-.617187.613281-.617187zm0 0" fill="#212121"/></svg>

<?xml version="1.0" encoding="UTF-8"?>
<svg xmlns="http://www.w3.org/2000/svg" xmlns:xlink="http://www.w3.org/1999/xlink" width="16pt" height="16pt" viewBox="0 0 16 16" version="1.1">
<defs>
<linearGradient id="linear0" gradientUnits="userSpaceOnUse" x1="254" y1="233.5" x2="254" y2="254.666672" gradientTransform="matrix(0.0500048,0,0,0.031253,-4.762959,6.05787)">
<stop offset="0" style="stop-color:rgb(0%,0%,0%);stop-opacity:0.27451;"/>
<stop offset="1" style="stop-color:rgb(0%,0%,0%);stop-opacity:0;"/>
</linearGradient>
<radialGradient id="radial0" gradientUnits="userSpaceOnUse" cx="450.908936" cy="189.579361" fx="450.908936" fy="189.579361" r="21.166656" gradientTransform="matrix(0.0000000870852,-0.0390662,-0.0703192,-0.0000000507693,26.396085,31.136144)">
<stop offset="0" style="stop-color:rgb(0%,0%,0%);stop-opacity:0.313726;"/>
<stop offset="0.222222" style="stop-color:rgb(0%,0%,0%);stop-opacity:0.27451;"/>
<stop offset="1" style="stop-color:rgb(0%,0%,0%);stop-opacity:0;"/>
</radialGradient>
<radialGradient id="radial1" gradientUnits="userSpaceOnUse" cx="450.908936" cy="189.579361" fx="450.908936" fy="189.579361" r="21.166656" gradientTransform="matrix(-0.0000000870852,0.0390662,0.0703192,0.0000000507693,-10.519571,-4.425262)">
<stop offset="0" style="stop-color:rgb(0%,0%,0%);stop-opacity:0.313726;"/>
<stop offset="0.222222" style="stop-color:rgb(0%,0%,0%);stop-opacity:0.27451;"/>
<stop offset="1" style="stop-color:rgb(0%,0%,0%);stop-opacity:0;"/>
</radialGradient>
<radialGradient id="radial2" gradientUnits="userSpaceOnUse" cx="450.908936" cy="189.579361" fx="450.908936" fy="189.579361" r="21.166656" gradientTransform="matrix(-0.0000000870852,-0.0390662,0.0703192,-0.0000000507693,-10.519571,31.136144)">
<stop offset="0" style="stop-color:rgb(0%,0%,0%);stop-opacity:0.313726;"/>
<stop offset="0.222222" style="stop-color:rgb(0%,0%,0%);stop-opacity:0.27451;"/>
<stop offset="1" style="stop-color:rgb(0%,0%,0%);stop-opacity:0;"/>
</radialGradient>
<radialGradient id="radial3" gradientUnits="userSpaceOnUse" cx="450.908936" cy="189.579361" fx="450.908936" fy="189.579361" r="21.166656" gradientTransform="matrix(0.0000000870852,0.0390662,-0.0703192,0.0000000507693,26.396084,-4.425262)">
<stop offset="0" style="stop-color:rgb(0%,0%,0%);stop-opacity:0.313726;"/>
<stop offset="0.222222" style="stop-color:rgb(0%,0%,0%);stop-opacity:0.27451;"/>
<stop offset="1" style="stop-color:rgb(0%,0%,0%);stop-opacity:0;"/>
</radialGradient>
<linearGradient id="linear1" gradientUnits="userSpaceOnUse" x1="254" y1="212.333328" x2="254" y2="-147.5" gradientTransform="matrix(0.031253,0,0,0.031253,0,6.719392)">
<stop offset="0" style="stop-color:rgb(36.078432%,41.960785%,75.294119%);stop-opacity:1;"/>
<stop offset="1" style="stop-color:rgb(47.450981%,52.549022%,79.607844%);stop-opacity:1;"/>
</linearGradient>
<linearGradient id="linear2" gradientUnits="userSpaceOnUse" x1="275.166656" y1="191.166672" x2="275.166656" y2="-41.666668" gradientTransform="matrix(0.031253,0,0,0.031253,0.000984502,7.999136)">
<stop offset="0" style="stop-color:rgb(73.725492%,66.666669%,64.313728%);stop-opacity:1;"/>
<stop offset="1" style="stop-color:rgb(84.313726%,80.000001%,78.431374%);stop-opacity:1;"/>
</linearGradient>
</defs>
<g id="surface1">
<path style=" stroke:none;fill-rule:nonzero;fill:url(#linear0);" d="M 2.644531 13.355469 L 13.230469 13.355469 L 13.230469 14.015625 L 2.644531 14.015625 Z M 2.644531 13.355469 "/>
<path style=" stroke:none;fill-rule:nonzero;fill:url(#radial0);" d="M 13.230469 13.355469 L 14.554688 13.355469 L 14.554688 12.695312 L 13.230469 12.695312 Z M 13.230469 13.355469 "/>
<path style=" stroke:none;fill-rule:nonzero;fill:url(#radial1);" d="M 2.644531 13.355469 L 1.324219 13.355469 L 1.324219 14.015625 L 2.644531 14.015625 Z M 2.644531 13.355469 "/>
<path style=" stroke:none;fill-rule:nonzero;fill:url(#radial2);" d="M 2.644531 13.355469 L 1.324219 13.355469 L 1.324219 12.695312 L 2.644531 12.695312 Z M 2.644531 13.355469 "/>
<path style=" stroke:none;fill-rule:nonzero;fill:url(#radial3);" d="M 13.230469 13.355469 L 14.554688 13.355469 L 14.554688 14.015625 L 13.230469 14.015625 Z M 13.230469 13.355469 "/>
<path style=" stroke:none;fill-rule:nonzero;fill:url(#linear1);" d="M 1.984375 2.109375 L 13.890625 2.109375 C 14.257812 2.109375 14.554688 2.40625 14.554688 2.769531 L 14.554688 12.695312 C 14.554688 13.058594 14.257812 13.355469 13.890625 13.355469 L 1.984375 13.355469 C 1.621094 13.355469 1.324219 13.058594 1.324219 12.695312 L 1.324219 2.769531 C 1.324219 2.40625 1.621094 2.109375 1.984375 2.109375 Z M 1.984375 2.109375 "/>
<path style=" stroke:none;fill-rule:nonzero;fill:rgb(100%,100%,100%);fill-opacity:0.392157;" d="M 1.984375 2.109375 C 1.617188 2.109375 1.324219 2.40625 1.324219 2.769531 L 1.324219 2.9375 C 1.324219 2.570312 1.617188 2.273438 1.984375 2.273438 L 13.890625 2.273438 C 14.257812 2.273438 14.554688 2.570312 14.554688 2.9375 L 14.554688 2.769531 C 14.554688 2.40625 14.257812 2.109375 13.890625 2.109375 Z M 1.984375 2.109375 "/>
<path style=" stroke:none;fill-rule:nonzero;fill:rgb(0%,0%,0%);fill-opacity:0.235294;" d="M 1.984375 13.355469 C 1.617188 13.355469 1.324219 13.058594 1.324219 12.695312 L 1.324219 12.527344 C 1.324219 12.894531 1.617188 13.191406 1.984375 13.191406 L 13.890625 13.191406 C 14.257812 13.191406 14.554688 12.894531 14.554688 12.527344 L 14.554688 12.695312 C 14.554688 13.058594 14.257812 13.355469 13.890625 13.355469 Z M 1.984375 13.355469 "/>
<path style="fill:none;stroke-width:21.299999;stroke-linecap:round;stroke-linejoin:round;stroke:rgb(100%,100%,100%);stroke-opacity:0.392157;stroke-miterlimit:4;" d="M 253.975747 -9.894587 C 271.474076 -9.894587 285.722715 4.354053 285.722715 21.852382 C 285.722715 39.350711 271.474076 53.59935 253.975747 53.59935 C 236.477418 53.59935 222.228778 39.350711 222.228778 21.852382 C 222.228778 4.354053 236.477418 -9.894587 253.975747 -9.894587 Z M 253.975747 -9.894587 " transform="matrix(0.031253,0,0,0.031253,0,6.719392)"/>
<path style="fill:none;stroke-width:21.132999;stroke-linecap:round;stroke-linejoin:round;stroke:rgb(100%,100%,100%);stroke-opacity:0.392157;stroke-miterlimit:4;" d="M 253.975747 -62.889526 C 300.721283 -62.889526 338.717654 -24.893154 338.717654 21.852382 C 338.717654 68.597918 300.721283 106.469301 253.975747 106.469301 C 207.230211 106.469301 169.358827 68.597918 169.358827 21.852382 C 169.358827 -24.893154 207.230211 -62.889526 253.975747 -62.889526 Z M 253.975747 -62.889526 " transform="matrix(0.031253,0,0,0.031253,0,6.719392)"/>
<path style=" stroke:none;fill-rule:nonzero;fill:rgb(0%,0%,0%);fill-opacity:1;" d="M 1.984375 2.0625 C 1.59375 2.0625 1.277344 2.378906 1.277344 2.769531 L 1.277344 12.695312 C 1.277344 13.085938 1.59375 13.402344 1.984375 13.402344 L 13.890625 13.402344 C 14.285156 13.402344 14.601562 13.085938 14.601562 12.695312 L 14.601562 2.769531 C 14.601562 2.378906 14.285156 2.0625 13.890625 2.0625 Z M 1.984375 2.15625 L 13.890625 2.15625 C 14.234375 2.15625 14.507812 2.429688 14.507812 2.769531 L 14.507812 12.695312 C 14.507812 13.035156 14.234375 13.308594 13.890625 13.308594 L 1.984375 13.308594 C 1.644531 13.308594 1.371094 13.035156 1.371094 12.695312 L 1.371094 2.769531 C 1.371094 2.429688 1.644531 2.15625 1.984375 2.15625 Z M 1.984375 2.15625 "/>
<path style=" stroke:none;fill-rule:nonzero;fill:url(#linear2);" d="M 7.9375 6.695312 C 7.574219 6.695312 7.277344 6.992188 7.277344 7.359375 L 7.277344 10.667969 C 7.277344 10.71875 7.285156 10.765625 7.292969 10.8125 C 7.289062 10.84375 7.285156 10.871094 7.28125 10.898438 L 7.15625 10.769531 C 6.894531 10.511719 6.476562 10.511719 6.21875 10.769531 C 5.960938 11.03125 5.960938 11.449219 6.21875 11.707031 L 7.390625 12.875 C 7.417969 12.90625 7.453125 12.933594 7.488281 12.957031 C 7.851562 13.558594 8.648438 13.972656 9.578125 13.972656 L 9.605469 13.972656 C 10.882812 13.972656 11.910156 13.195312 11.910156 12.226562 L 11.910156 12.082031 C 11.910156 12.066406 11.90625 12.050781 11.90625 12.03125 C 11.90625 12.019531 11.910156 12.003906 11.910156 11.988281 L 11.910156 10.996094 C 11.910156 10.503906 11.550781 10.097656 11.082031 10.019531 L 11.082031 10.003906 C 11.082031 9.636719 10.785156 9.34375 10.421875 9.34375 C 10.21875 9.34375 10.039062 9.433594 9.917969 9.574219 C 9.867188 9.253906 9.59375 9.011719 9.261719 9.011719 C 8.894531 9.011719 8.601562 9.308594 8.601562 9.671875 L 8.601562 7.359375 C 8.601562 6.992188 8.304688 6.695312 7.9375 6.695312 Z M 7.9375 6.695312 "/>
<path style=" stroke:none;fill-rule:nonzero;fill:rgb(100%,100%,100%);fill-opacity:0.392157;" d="M 7.9375 6.695312 C 7.574219 6.695312 7.277344 6.992188 7.277344 7.359375 L 7.277344 7.648438 C 7.277344 7.285156 7.574219 6.988281 7.9375 6.988281 C 8.304688 6.988281 8.601562 7.285156 8.601562 7.648438 L 8.601562 7.359375 C 8.601562 6.992188 8.304688 6.695312 7.9375 6.695312 Z M 9.261719 9.011719 C 8.894531 9.011719 8.601562 9.308594 8.601562 9.671875 L 8.601562 9.964844 C 8.601562 9.597656 8.894531 9.304688 9.261719 9.304688 C 9.59375 9.304688 9.867188 9.546875 9.917969 9.867188 C 10.039062 9.722656 10.21875 9.632812 10.421875 9.632812 C 10.785156 9.632812 11.082031 9.929688 11.082031 10.296875 L 11.082031 10.308594 C 11.550781 10.386719 11.910156 10.792969 11.910156 11.289062 L 11.910156 10.996094 C 11.910156 10.503906 11.550781 10.097656 11.082031 10.019531 L 11.082031 10.003906 C 11.082031 9.636719 10.785156 9.34375 10.421875 9.34375 C 10.21875 9.34375 10.039062 9.433594 9.917969 9.574219 C 9.867188 9.253906 9.59375 9.011719 9.261719 9.011719 Z M 6.6875 10.578125 C 6.519531 10.578125 6.347656 10.640625 6.21875 10.769531 C 6.050781 10.9375 5.992188 11.171875 6.042969 11.382812 C 6.066406 11.265625 6.128906 11.15625 6.21875 11.0625 C 6.476562 10.804688 6.894531 10.804688 7.15625 11.0625 L 7.28125 11.191406 C 7.285156 11.160156 7.289062 11.132812 7.292969 11.105469 C 7.285156 11.058594 7.277344 11.007812 7.277344 10.957031 L 7.277344 10.894531 L 7.15625 10.769531 C 7.023438 10.640625 6.855469 10.578125 6.6875 10.578125 Z M 6.6875 10.578125 "/>
<path style=" stroke:none;fill-rule:nonzero;fill:rgb(0%,0%,0%);fill-opacity:0.235294;" d="M 7.277344 10.335938 L 7.277344 10.5625 L 7.28125 10.566406 C 7.285156 10.539062 7.289062 10.511719 7.292969 10.484375 C 7.285156 10.4375 7.277344 10.386719 7.277344 10.335938 Z M 6.046875 11.074219 C 5.988281 11.292969 6.046875 11.535156 6.21875 11.707031 L 7.390625 12.875 C 7.417969 12.90625 7.453125 12.933594 7.488281 12.957031 C 7.851562 13.558594 8.648438 13.972656 9.578125 13.972656 L 9.605469 13.972656 C 10.882812 13.972656 11.910156 13.195312 11.910156 12.226562 L 11.910156 12.082031 C 11.910156 12.066406 11.90625 12.050781 11.90625 12.03125 C 11.90625 12.019531 11.910156 12.003906 11.910156 11.988281 L 11.910156 11.894531 C 11.910156 12.863281 10.882812 13.644531 9.605469 13.644531 L 9.578125 13.644531 C 8.648438 13.644531 7.851562 13.226562 7.488281 12.625 C 7.453125 12.601562 7.417969 12.574219 7.390625 12.546875 L 6.21875 11.375 C 6.132812 11.289062 6.074219 11.183594 6.046875 11.074219 Z M 11.910156 11.660156 C 11.910156 11.671875 11.90625 11.6875 11.90625 11.703125 C 11.90625 11.71875 11.910156 11.734375 11.910156 11.75 Z M 11.910156 11.660156 "/>
<path style=" stroke:none;fill-rule:nonzero;fill:rgb(12.941177%,12.941177%,12.941177%);fill-opacity:1;" d="M 7.9375 6.648438 C 7.546875 6.648438 7.230469 6.964844 7.230469 7.359375 L 7.230469 10.667969 C 7.230469 10.710938 7.238281 10.753906 7.246094 10.796875 L 7.1875 10.738281 C 6.910156 10.460938 6.464844 10.460938 6.1875 10.738281 C 5.910156 11.015625 5.910156 11.464844 6.1875 11.738281 L 7.355469 12.910156 C 7.386719 12.941406 7.417969 12.964844 7.453125 12.988281 C 7.828125 13.605469 8.636719 14.019531 9.578125 14.019531 L 9.605469 14.019531 C 10.253906 14.019531 10.839844 13.824219 11.265625 13.5 C 11.6875 13.175781 11.957031 12.726562 11.957031 12.226562 L 11.957031 12.082031 C 11.957031 12.066406 11.953125 12.050781 11.953125 12.03125 C 11.953125 12.019531 11.957031 12.003906 11.957031 11.988281 L 11.957031 10.996094 C 11.957031 10.496094 11.601562 10.078125 11.125 9.980469 C 11.113281 9.601562 10.804688 9.296875 10.421875 9.296875 C 10.234375 9.296875 10.070312 9.371094 9.941406 9.484375 C 9.859375 9.1875 9.589844 8.964844 9.261719 8.964844 C 8.996094 8.964844 8.769531 9.113281 8.648438 9.328125 L 8.648438 7.359375 C 8.648438 6.964844 8.332031 6.648438 7.9375 6.648438 Z M 7.9375 6.742188 C 8.28125 6.742188 8.554688 7.015625 8.554688 7.359375 L 8.554688 9.671875 L 8.648438 9.671875 C 8.648438 9.332031 8.921875 9.058594 9.261719 9.058594 C 9.574219 9.058594 9.824219 9.285156 9.871094 9.582031 C 9.871094 9.601562 9.886719 9.613281 9.902344 9.621094 C 9.921875 9.625 9.941406 9.621094 9.953125 9.605469 C 10.066406 9.472656 10.230469 9.390625 10.421875 9.390625 C 10.761719 9.390625 11.035156 9.664062 11.035156 10.003906 L 11.035156 10.019531 C 11.035156 10.042969 11.050781 10.0625 11.074219 10.066406 C 11.523438 10.140625 11.863281 10.527344 11.863281 10.996094 L 11.863281 11.988281 C 11.863281 12.003906 11.859375 12.015625 11.859375 12.03125 C 11.859375 12.03125 11.859375 12.03125 11.859375 12.035156 C 11.859375 12.050781 11.863281 12.066406 11.863281 12.082031 L 11.863281 12.226562 C 11.863281 12.695312 11.613281 13.117188 11.207031 13.425781 C 10.800781 13.734375 10.234375 13.925781 9.605469 13.925781 L 9.578125 13.925781 C 8.664062 13.925781 7.878906 13.515625 7.527344 12.933594 C 7.523438 12.925781 7.519531 12.921875 7.511719 12.917969 C 7.480469 12.898438 7.449219 12.871094 7.421875 12.84375 L 6.253906 11.671875 C 6.011719 11.433594 6.011719 11.046875 6.253906 10.804688 C 6.492188 10.5625 6.878906 10.5625 7.121094 10.804688 L 7.25 10.933594 C 7.261719 10.945312 7.28125 10.949219 7.296875 10.941406 C 7.316406 10.9375 7.328125 10.921875 7.328125 10.902344 C 7.332031 10.875 7.335938 10.847656 7.339844 10.824219 C 7.339844 10.816406 7.339844 10.808594 7.339844 10.804688 C 7.328125 10.757812 7.324219 10.714844 7.324219 10.667969 L 7.324219 7.359375 C 7.324219 7.015625 7.597656 6.742188 7.9375 6.742188 Z M 7.9375 6.742188 "/>
</g>
</svg>
